X:1
T:Elle craint cela
T:Clément Janequin
T:Source : Tiers livre contenant 21 chansons à 4, eslevées de plusieurs livres---Paris--- P.Attaignant---1536. (first print : 1533) Editor : André Vierendeels (20/03/18) Notes : Original clefs : G2, C2, C3, F3 Original note values have been quartered in 3-beat measures Original note values have been halved Editorial accidentals above the staff 
T:Elle craint cela
T:©
T:©
T:©
T:©
T:©
T:©
C:Clément Janequin
Z:©
%%score [ 1 2 [ 3 4 ] ]
L:1/8
Q:1/4=120
M:3/4
K:F
V:1 treble nm="Soprano" snm="S"
V:2 treble nm="Alto" snm="A"
V:3 treble-8 nm="Tenor 1" snm="T 1"
V:4 treble-8 nm="Tenor 2" snm="T 2"
V:1
 d4 d2 | d3 e f2 | e4 d2 | c4 f2 | e4 d2 |[M:2/2] c3 d B2 A2 | A2 z d ggff/f/ | ed f2 ed f2 | %8
w: El- le|craint ce- la|sur tout|rien qu'on|la cha-|toul- le par le|bas, qu'on la cha- toul- le, cha-|toul- le, cha- toul- le, cha-|
 e/e/edd cddc | d4 c2 cc | f2 d2 c3 A | A8 | z2 f2 e2 d2 | c2 d2 d2 c2 | d4 c2 cc | f2 d2 c3 A | %16
w: toul- le, qu'on la cha- toul- le par le|bas, tout- tes foys|el- le par- le|bas,|et si nest|point chi- che du|sien, tout- tes foys|el- le par- le-|
 A8 | z2 f2 e2 d2 | c2 d2 d2 c2 | d4 d2 dd | d2 f2 e2 d2 | c2 c2 c2 f2 | e2 d2 c2 B2 | %23
w: bas,|et si nest|point chi- che du|sien, son ne luy|dict en fra- pant,|tien tien tien, par|ma foy, ce nest|
 A2 G2 F2 z2 | f2 ff e2 d2 | c2 B2 A4 | FF B2 Bcdd | d4 d2 dd | d2 f2 e2 d2 | c4 e2 d2 | %30
w: point son cas,|par ma foy, ce nest|point son cas,|el- le craint, el- le craint ce-|la, si on luy|dict rien, tout va|bien, tout va|
 c2 f2 e2 d2 | c3 d B2 A2 | A4 c2 cc | f2 d2 c3 B | A2 f2 e2 d2 | c2 d2 d2 c2 | d2 dd d2 d2 | %37
w: bien, voi- re beau-|coup plus que le|pas, mais te- nir|des pro- pos ung|tas, et ne ser-|vir que den- tre-|tien, el- le craint ce-|
 d2 dd d2 d2 | c8 |] %39
w: la el- le craint ce-|la.|
V:2
 B4 B2 | B3 A A2 | c4 G2 | A4 F2 | c4 B2 |[M:2/2] A3 F G2 E2 | DAAB c2 A2 | z D A2 ADAA | %8
w: El- le|craint ce- la|sur tout|rien qu'on|la cha-|toul- le par le|bas, qu'on la cha- toul- le,|cha- toul- le, cha- toul- le|
 z cBG ABAA | A4 A2 AA | F2 B2 G3 F | F2 D2 C2 F2 | E2 c2 c2 A2 | A2 B2 A2 A2 |"^#" A4 A2 AA | %15
w: qu'on la cha- toul- le par le|bas, tout- tes foys|el- le par- le|bas, et si nest|point, et si nest|point chi- che du|sien, tout- tes foys|
 F2 B2 G3 F | F2 D2 C2 F2 | E2 c2 c2 A2 | A2 B2 A2 A2 | A4 F2 FF | B2 A2 G2 B2 | A2 A2 A2 c2 | %22
w: el- le par- le|bas, et si nest|point, et si nest|point chi- che du|sien, son ne luy|dict en fra- pant,|tien tien tien, par|
 c2 B2 A2 G2 | F2 E2 DA c2 | B2 AF GA D2 | EFGD F2 EE | D2 z2 FFBB | A4 A2 AA | B2 A2 c2 B2 | %29
w: ma foy, ce nest|point son cas, par ma|foy, ce nest point son cas,|el- le craint ce- la, el- le|craint, el- le craint ce-|la, si on luy|dict rien, tout va|
 A4 GABB | A2 AB c2 B2 | A4 G2 E2 | F4 E2 EE | DCDE FGAB | c2 A2 AAFG | A2 B2 A4 | z2 BB AF B2 | %37
w: bien, tout va, tout va|bien, voi- re beau- coup|plus que le|pas, mais te- nir|des pro- pos ung tas et ne ser-|vir, et ne ser- vir que|den- tre- tien,|el- le craint ce- la,|
 BBAF/F/ B2 A2 | A8 |] %39
w: el- le craint, el- le craint ce-|la.|
V:3
 g4 g2 | f3 e d2 | g4 d2 | e4 d2 | g4 f2 |[M:2/2] e3 d d2 c2 | dfff ee z a | a f2 a a f2 d | %8
w: El- le|craint ce- la|sur- tout|rien qu'on|la cha-|toul- le par le|bas, qu'on la cha- toul- le, cha-|toul- le, cha- toul- le, cha-|
 gg/g/fd egfe | d4 e2 ee | d2 f2 e3 c | c2 f2 e2 d2 | c2 a2 g2 f2 | e2 g2 f2 e2 | d4 e2 ee | %15
w: toul- le, qu'on la cha- toul- le par le|bas, tout- tes foys|el- le par- le|bas, et si nest|point, et si nest|point chi- che du|sien, tout- tes foys|
 d2 f2 e3 c | c2 f2 e2 d2 | c2 a2 g2 f2 | e2 g2 f2 e2 | d4 a2 aa | g2 f2 c2 g2 | e2 e2 e2 a2 | %22
w: el- le par- le|bas, et si nest|point, et si nest|point ch- che du|sien, son ne luy|dict en fra- pant,|tien tien tien, par|
 g3 f ef d2 | z4 z f e2 | d2 dd c2 B2 | A2 GG d2 c2 | d2 Bc d2 g2 | f8 | z4 g3 f | ed e2 z2 gf | %30
w: ma foy, ce nest point|par ma|foy, ce nest point son|cas, el- le craint ce-|la, el- le craint ce-|la,|tout va,|tout va bien, tout- va,|
 ecdd A2 ff | f2 ed d2 c2 | d2 a2 aaaa | f2 g2 a2 f2 | e2 d2 ccdd | e2 gg f2 e2 | d2 de fd g2 | %37
w: tout va, tout va bien, voi- re|beau- coup plus que le|pas, mais te- nir des pro-|pos ung tas, et|ne ser- vir que den- tre-|tien, el- le craint ce-|la, el- le craint ce- la,|
 defd/d/ g2 f2 | e8 |] %39
w: el- le craint, el- le craint ce-|la.|
V:4
 G4 G2 | B3 c d2 | c4 B2 | A4 B2 | c4 d2 |[M:2/2]"^#" A3 B G2 A2 | D2 d2 cc d2 | AB d2 AB d2 | %8
w: El- le|craint ce- la|sur tout|rien qu'on|la cha-|toul- le par le|bas, qu'on la cha- toul-|le, cha- toul- le, cha- toul-|
 ccdB AGAA | D4 A2 AA | B2 B2 c3 F | FEFG A2 D2 | AGAB c2 d2 | A2 G2 A2 A2 |"^#" D4 A2 AA | %15
w: le, qu'on la cha- toul- le par le|bas, tout- tes foys|el- le par- le|bas _ _ _ _ et|si _ _ _ _ nest|point chi- che du|sien, tout- tes foys|
 B2 B2 c3 F | FEFG A2 D2 | AGAB c2 d2 | A2 G2 A2 A2 | D8 | z8 | A2 A2 A2 F2 | cc G2 AF G2 | %23
w: el- le par- le|bas, _ _ _ _ et|si _ _ _ _ nest|point chi- che du|sien,||tein tien tien, par|ma foy, ce nest point son|
 D d2 c dD A2 | z8 | z4 z2 AA | B2 GA B2 G2 | d4 D2 DD | G2 D2 c2 G2 | A2 AB ccGG | AA D2 z2 B2 | %31
w: cas, el- le craint ce- la,||el- le|craint, el- le craint ce-|la, si on luy|dict rien, tout va|bien, tout va, tout va, tout va,|tout va bien, voi-|
 FGAF G2 A2 | D4 A2 AA | B2 B2 F3 G | A2 z2 z2 B2 | A2 G2 A2 A2 | B2 G2 d2 GA | BG d2 z2 D2 | %38
w: re beau- coup plus que le|pas, mais te- nir|des pro- pos ung|tas, et|ne ser- vir que|den- tre- tien, el- le|craint ce- la, ce-|
"^#" A8 |] %39
w: la.|

